X:1
T:Mark Walters Set Tune
L:1/4
M:4/4
I:linebreak $
K:G
V:1 treble 
V:1
|: B/c/ |"G" d B/d/"D7" c A/c/ |"G" B G B c | d B/d/ c B |"D7" A d/d/ d c |"G" B d/d/"D7" A c/c/ | %6
"G" B G/G/"D7" A A/A/ |"G" G G/G/"D7" A c/c/ |$"G" B G G |: D/D/ ||"G" G D B, D/D/ | G D B, D/D/ | %12
 G D/D/ B, D/B,/ |"D7" C A,2 D/D/ |"G" G D B, D | G B"D7" A A/A/ |"G" G G"D7" A A/c/ |$"G" B G G :| %18
